X:159
T: HIE FUER EINES FROMMEN BRAEUTGAM THUER
N: E1276
O: Europa, Mitteleuropa, Deutschland
R: Ansinge -, Brauchtums - Lied, Kirchen - Fest, Hochzeit
M: 4/4
L: 1/4
K: F
 | F2A2 | c2c
c | cABc | AAA2 | z
FBB | AGFF | G
GAA | GFA2 | B
BAF | GGF2 | F2z
F | FGAF | ccc
c | cABc | A2A2 | z
FBB | AGFF | G
GAA | GFA2 | B
BAF | GGF2 | F4

